images/header/search.svg

<svg width="14" height="14" viewBox="0 0 14 14" fill="none" xmlns="http://www.w3.org/2000/svg">
<path fill-rule="evenodd" clip-rule="evenodd" d="M1.66329 6.18794C1.66329 3.61061 3.75263 1.52128 6.32996 1.52128C8.90729 1.52128 10.9966 3.61061 10.9966 6.18794C10.9966 7.44522 10.4994 8.58636 9.69093 9.42549C9.66808 9.44305 9.64612 9.46229 9.62519 9.48321C9.60427 9.50413 9.58503 9.5261 9.56748 9.54894C8.72835 10.3574 7.58722 10.8546 6.32996 10.8546C3.75263 10.8546 1.66329 8.76527 1.66329 6.18794ZM10.0751 10.8759C9.04862 11.697 7.74662 12.1879 6.32996 12.1879C3.01625 12.1879 0.329956 9.50165 0.329956 6.18794C0.329956 2.87423 3.01625 0.187943 6.32996 0.187943C9.64367 0.187943 12.33 2.87423 12.33 6.18794C12.33 7.60463 11.839 8.90663 11.0179 9.93308L13.468 12.3832C13.7284 12.6436 13.7284 13.0657 13.468 13.326C13.2077 13.5864 12.7855 13.5864 12.5252 13.326L10.0751 10.8759Z" fill="#2D3440"/>
</svg>

<svg width="14" height="14" fill="none" xmlns="http://www.w3.org/2000/svg"><path fill-rule="evenodd" clip-rule="evenodd" d="M1.6633 6.188c0-2.5774 2.0893-4.6667 4.6667-4.6667 2.5773 0 4.6666 2.0893 4.6666 4.6666 0 1.2573-.4972 2.3985-1.3057 3.2376a.6735.6735 0 0 0-.1234.1234c-.8392.8085-1.9803 1.3057-3.2375 1.3057-2.5774 0-4.6667-2.0893-4.6667-4.6667Zm8.4118 4.6879a5.9747 5.9747 0 0 1-3.7451 1.312c-3.3138 0-6-2.6863-6-6s2.6862-6 6-6c3.3137 0 6 2.6863 6 6a5.9747 5.9747 0 0 1-1.3121 3.7452l2.4501 2.4501a.6666.6666 0 0 1 0 .9428.6666.6666 0 0 1-.9428 0l-2.4501-2.4501Z" fill="#2D3440"/></svg>
